X:28
T:Stärnäegg-Juiz. 1998  Bb ABCBD
T:Sepp Herger  (* 16.1.1962)
T:Dirigenten-Notiz  Edi Gasser
C:Unterwalden (CH)
%%partsbox
P:ABCBD
R:Naturjodel
L:1/4
K:Bb
M:4/4
"freudiger Anruf" F|B/c/d>Bd | cB2 ||  
M:4/4
[P:A] FB/c/ d>c | B2FB | d2B2 | Ff/d/ c>B | ABc2 | 
FE/F/ d>c | dcB2 | FB/c/d>c | B2FB | 
d2B2 | Ff/d/c>B | AF/e/dc | B3z || 
M:2/4
[P:B] dB | dB | c>B | A2 | F>E | dc | d2 | 
B2 | dB | dB | c>B | A2 | F>e | dc | (B2 | B)z || 
M:2/4
L:1/8
[P:C] FB | d2 Be | d2 FB | d2 Bd | c2cB | A2AB | c2fe | d2c2 | B2FB | d2Be | 
d2Bc | d2df | e2ed | c2ce | d2Bd | f3e | d2c2 | B4 | B2 || 
L:1/4
[P:D] d/d/B | d/d/B | c>B | A2 | F>F | d c | d2 | B2 | 
d/d/B | d/d/B | c>B | A2 | F>e | dc | (B2 | B)z |] 
W:
%W:Reihenfolge: A-B-C-B-D
W:
W:notiert Edi Gasser, nach Angaben von Sepp
W:UJV-Naturjodelsammlung: Code-Nr: 22-15
W:http://www.naturjodler.ch/code 22.htm  (with AUDIO)
%May 22, 2018

